X: 1
T: Devil And His Dam, The
Z: ceili
S: https://thesession.org/tunes/15382#setting28740
R: jig
M: 6/8
L: 1/8
K: Amaj
aaa aef|aef cef|a/a/a/a aef|cde EFA|
aaa aba|efe cBA|cea e2 A|cAA A3:|]
(3A/A/A/A ecA|Ace fec|(3A/A/A/A cef|AcB AEF|
(3A/A/A/A ecA|Ace fec|aef e2 A|cAA A3:|]
